X:1
T:Prima che la cagione
T:Horatio Vecchi
T:Source : La Veglie di Siena---Venetia---Ang.Gardano---1604. Editor : André Vierendeels (02/04/17).
T:Notes : Original clefs : G2, G2, F3 See also the french version (translation) "Plutost que je le diche" (Vecchi) 
T:Prima che la cagione
T:©
T:©
T:©
T:©
C:Horatio Vecchi
Z:©
%%score [ 1 2 3 ]
L:1/8
Q:1/4=120
M:2/2
K:C
V:1 treble nm="Soprano 1" snm="S 1"
V:2 treble nm="Soprano 2" snm="S 2"
V:3 bass nm="Bass" snm="B"
V:1
 z8 | z2 d2 e2 f2 | g2 e2 d4 | c4 z2 e2 | d3 e c2 c2 | decd B4 | d2 e2 c2 B2 | A2 c4 B2 | %8
w: |Pri- ma che|la ca- gio-|ne, io|di- ca di mia|mor- * * * te,|il mio mal che|rin- for- *|
 c2 G4 A2- | AG G4 ^F2 | GABG A2 B2 | c8 :: e6 de | c2 A2 z2 d2- | d2 GA B2 G2 | c2 A4 B2 | %16
w: za, rad- dop-|* pi la sua|for- * * * * *|za,|ch'uo- po'e'l mo-|ri- re, e|_ re- mo- ri- re|sot- to d'a-|
 c2 d2 e2 dc | B8 | z2 G2 B2 G2 | A2 B2 c2 d2 | B6 G2 | A2 B2 c2 G2 | B2 c2 d4 | z2 d2 f2 d2 | %24
w: mor l'Im- pe- * *|ro,|ch'un ve- ro'A-|mant ha'l cor con-|stant, ch'un|ver- ro'A- mant ha'l|cor con- stant,|ch'un ve- ro'A-|
 e2 f2 g2 e2 | d4 e2 f2 | g3 a f2 e2- | e2 c2 d3 e | c8 :| %29
w: mant ha'l cor con-|stant, per sof-|frir _ _ suo|_ mar- ti- *|re.|
V:2
 c4 d2 e2 | f2 d2 c3 d | B2 c4 B2 | c2 G2 c4 | B2 G4 A2 | BcAB ^G4 | z4 z2 g2 | a2 g2 f2 f2 | %8
w: Pri- ma che|la ca- gio- *||ne, io di-|ca di mia|mor _ _ _ te,|il|mio mal che rin-|
 e4 e2 e2 | d3 e c3 d | B2 e2 c2 d2 | e8 :: G6 GG | A2 F2 z2 f2- | f2 ec d2 c2 | z2 c2 d2 f2 | %16
w: for- za, rad-|dop- pi la _|_ sua for- *|za,|ch'uo- po'e'l mo-|ri- re, e|_ re- mo- ri- re,|sot- to d'a-|
 e2 d2 c4 | d2 G2 B2 G2 | BABc d2 d2 | f2 d2 e2 f2 | g2 fe d2 e2 | d4 z2 c2 | d2 e2 f2 d2- | %23
w: mor l'Im- pe-|ro, ch'un ve- ro'A-|mant, _ _ _ _ ch'un|ve- ro'A- mant ha'l|cor _ _ _ con-|stant, ch'un|ve- ro'A- mant ha'l|
 d2 B2 c2 B2 | z2 A2 BG c2- | c2 B2 c4 | B2 c2 d2 c2 | B2 c4 B2 | c8 :| %29
w: _ cor con- stant,|ha'l cor _ _|_ con- stant,|per sof- frir suo|mar- ti- *|re.|
V:3
 z4 G,4 | A,2 B,2 C2 A,2 | G,8 | C,4 z2 C,2 | G,3 F, E,2 F,2 | D,4 E,4 | z2 G,2 A,2 G,2 | %7
w: Pri-|ma che la ca-|gio-|ne, io|di- ca di mia|mor- te,|il mio mal|
 F,2 E,2 D,4 | C,4 C4 | B,3 C A,3 B, | G,2 E,2 F,2 D,2 | C,8 :: C6 B,C |"^b" F,2 F,2 z2 B,2- | %14
w: che rin- for-|za, rad-|dop- pi la _|_ sua for- *|za,|ch'uo- po'e'l mo-|ri- re, e|
 B,2 CA, G,2 G,2 | E,2 F,2 D,4 | C,2 B,,2 A,,4 | G,,8- | G,,8 | z4 z2 D,2 | E,2 F,2 G,2 E,2 | %21
w: _ re- mo- ri- re,|sot- to d'a-|mor l'Im- pe-|ro,|_|ch'un|ve- ro'A- mant ha'l|
 F,2 G,2 C,D,E,C, | G,4 z2 G,2 | B,2 G,2 A,2 B,2 | C2 A,2 G,4- | G,4 C,2 D,2 | E,4 D,2 A,2 | %27
w: cor con- stant, _ _ _|_ ch'un|ve- ro'A- mant ha'l|cor con- stant,|_ per sof-|frir suo mar-|
 E,3 F, G,2 G,,2 | C,8 :| %29
w: ti- * * *|re.|

